images/services/views-icon.svg

<svg width="56" height="36" viewBox="0 0 56 36" fill="none" xmlns="http://www.w3.org/2000/svg">
<path d="M27.9997 26.5786C32.7612 26.5786 36.621 22.74 36.621 18.0049C36.621 13.2697 32.7612 9.43115 27.9997 9.43115C23.2383 9.43115 19.3784 13.2697 19.3784 18.0049C19.3784 22.74 23.2383 26.5786 27.9997 26.5786Z" fill="#407BFF"/>
<path d="M55.1411 15.6299C48.5141 7.66599 38.4827 0 28.0001 0C17.5155 0 7.48174 7.67135 0.859168 15.6299C-0.286389 17.006 -0.286389 19.0037 0.859168 20.3798C2.52416 22.3807 6.01471 26.2431 10.6767 29.618C22.4177 38.118 33.5567 38.1367 45.3236 29.618C49.9856 26.2431 53.4761 22.3807 55.1411 20.3798C56.2833 19.0064 56.2893 17.0105 55.1411 15.6299ZM28.0001 6.00161C34.6558 6.00161 40.07 11.3859 40.07 18.0048C40.07 24.6238 34.6558 30.0081 28.0001 30.0081C21.3445 30.0081 15.9303 24.6238 15.9303 18.0048C15.9303 11.3859 21.3445 6.00161 28.0001 6.00161Z" fill="#407BFF"/>
</svg>

<?xml version="1.0" encoding="UTF-8"?>
<svg width="56" height="36" version="1.1" viewBox="0 0 56 36" xmlns="http://www.w3.org/2000/svg">
 <path d="m28 26.579c4.7615 0 8.6213-3.8386 8.6213-8.5737 0-4.7352-3.8598-8.5738-8.6213-8.5738-4.7614 0-8.6213 3.8386-8.6213 8.5738 0 4.7351 3.8599 8.5737 8.6213 8.5737z" fill="#FF725E"/>
 <path d="m55.141 15.63c-6.627-7.9639-16.658-15.63-27.141-15.63-10.485 0-20.518 7.6714-27.141 15.63-1.1456 1.3761-1.1456 3.3738 0 4.7499 1.665 2.0009 5.1555 5.8633 9.8175 9.2382 11.741 8.5 22.88 8.5187 34.647 0 4.662-3.3749 8.1525-7.2373 9.8175-9.2382 1.1422-1.3734 1.1482-3.3693 0-4.7499zm-27.141-9.6283c6.6557 0 12.07 5.3843 12.07 12.003 0 6.619-5.4142 12.003-12.07 12.003-6.6556 0-12.07-5.3843-12.07-12.003 0-6.6189 5.4142-12.003 12.07-12.003z" fill="#FF725E"/>
</svg>
